packages/icon/src/svg/fullscreen-exit.icon.svg

<svg width="24" height="24" viewBox="0 0 24 24" fill="none" xmlns="http://www.w3.org/2000/svg">
<path fill-rule="evenodd" clip-rule="evenodd" d="M20.6464 1.93945L15 7.58569V4.5C15 4.22388 14.7761 4 14.5 4H13.5C13.2239 4 13 4.22388 13 4.5V10.5C13 10.7761 13.2239 11 13.5 11H19.5C19.7761 11 20 10.7761 20 10.5V9.5C20 9.22388 19.7761 9 19.5 9H16.4143L22.0607 3.35352C22.2559 3.15845 22.2559 2.8418 22.0607 2.64648L21.3535 1.93945C21.1582 1.74414 20.8417 1.74414 20.6464 1.93945ZM7.58592 15L1.93932 20.6465C1.744 20.8418 1.744 21.1584 1.93932 21.3538L2.64641 22.0608C2.84166 22.2561 3.15825 22.2561 3.3535 22.0608L8.99998 16.4143V19.5C8.99998 19.7761 9.22386 20 9.49998 20H10.5C10.7761 20 11 19.7761 11 19.5V13.5C11 13.2239 10.7761 13 10.5 13H4.49998C4.22386 13 3.99998 13.2239 3.99998 13.5V14.5C3.99998 14.7761 4.22386 15 4.49998 15H7.58592Z" fill="white"/>
</svg>

<svg aria-label="fullscreen exit icon" viewBox="0 0 24 24"><path fill-rule="evenodd" clip-rule="evenodd" d="M20.646 1.94L15 7.585V4.5a.5.5 0 00-.5-.5h-1a.5.5 0 00-.5.5v6a.5.5 0 00.5.5h6a.5.5 0 00.5-.5v-1a.5.5 0 00-.5-.5h-3.086l5.647-5.646a.5.5 0 000-.708l-.707-.707a.5.5 0 00-.708 0zM7.586 15l-5.647 5.646a.5.5 0 000 .708l.707.707a.5.5 0 00.708 0L9 16.414V19.5a.5.5 0 00.5.5h1a.5.5 0 00.5-.5v-6a.5.5 0 00-.5-.5h-6a.5.5 0 00-.5.5v1a.5.5 0 00.5.5h3.086z"/></svg>
